X: 15
T:Old Home Place
C:Dean Webb and Mitchell F. Jayne
R: Bluegrass
M:4/4
L:1/4 
K:F
N:Copyright 1963 and 1991 Lansdowne Music - Winston Music Publishers ASCAP
AA||:"F"A3A|"A7"G3 A/A/|"Bb"F2 F-D| "F"C3 F/F/|
w:Its been ten long years since _I left my home in the
w:_(And) girl ran off with an-oth-er _man _The
F2F2|"G7"A2 F-F|"C7"G4-|G2 G G|"F"A3 A|"A7"G3 A/G/|
w:hol-low where I was born _Where the cool Fall nites made the
w:tav-erns took my _pay __and now I stand where the
"Bb"F3D|"F"C2 F F| F2 A-B|"C7" A-E2 G|"F" F4-|
w:wood-smoke rise and the fox hunt-er blew _his horn
w:old home stood _be-fore they _took it a-way
F3 A/A/|"F" A3 A|"A7"G2 A G|"Bb"F2 F-D |"F" C3 C|
w:_I _fell in love with a girl in the town I
w:_Now the geese fly South and the wind is _cold I
F3 F|"G7"A2GF|"C7"G4-|G3 G|"F"A3 A|
w:Tho't that she would be true. _I went a-
w:stand here and hang my head _I've lost my
"A7"G3A/A/|"Bb"F2D2|"F" C2 F|F2AB|"C7"A-E2 G|
w:way to _char-lottes-ville and worked in a saw _mill
w:love and I've lost my home and wish that _I _was
"F"F4-|F4||"Bb"B2 B B|c3 B|"F"A3"C7"G|
w:crew _What have they done with your home
w:dead
"F"F4 |"C7"G4|"G7" G G A F|"C7"G4|G3 A|
w:place why did they tear it down _and
"F"A2Ac|"A7"A3 G|"Bb"F2 F D|"F"C3 F|F2FG|
w:why did I leave the plow and the field and look for a 
"C7"A2 A G|1"F"F4-|F3A:|2"F"F4-|F3z|]
w:job in the town _and town.

